X: 161
T: The Craftsman
P: Longways for as many as will
%R: reel
B: "The Dancing-Master" printed by John Walsh, London
S: 6: CCDM1 http://imslp.org/wiki/The_Compleat_Country_Dancing-Master_(Various) V.1 p.4 #4
Z: 2012-2013 John Chambers <jc:trillian.mit.edu>
N: 2nd part has initial repeat but no final repeat.
M: C|
L: 1/8
K: F
% - - - - - - - - - - - - - - - - - - - - - - - - -
|: fgag f2f2 | f2ef g4   | fgag f2f2 | f2ed c4 :|\
|: ABcA dBf2 | ABcA dBf2 | ABcA dBfd | cBAG F4 :|
% - - - - - - - - - - - - - - - - - - - - - - - - -
%%begintext align
%% The 1st Cu. takes Hands and foots it with the 2d Wo. .|
%% First Cu. does the same with the 2d Man :|
%% First and 2d Cu. Hands across half round with their right Hands .|
%% Back again with their Left :#:
%% First Cu. leads below the 2d Cu. and foots it .|
%% First Cu. leads through the 3d Cu. :|
%% First Cu. Right and Left quite round with the 2d .|
%% and turn in the 2d Cu. Place.
%% [CCDM1]
%%endtext
%%sep 1 8 500

%%sep 1 1 500
%%sep 1 1 500
